X:108
T:Hell On The Wabash * 
C:As Played by Col. Le Roy Van Horn Co. A 18th U.S.I.
B:American Veteran Fifer #108
M:2/4
L:1/16
Q:1/8=180
K:A
(3efg |a2a2 A3B|cdec A2Bf|=g2g2 =G3A|Bcdc =Gz2^g|a2a2 A3B|cdec A2(3BAG|Ac (3efg aefd|cABG A2:|
|:A2|ce z e eecA|z8|Bd z d ddB=G|z8|ce z e eecA|z8|Ac (3efg aefd|cABG A2:|
